packages/foundations/assets/icons/functional/images/arrows/arrow_right.svg

<svg xmlns="http://www.w3.org/2000/svg" width="32" height="32" fill="none"><path fill="#1A1C1F" fill-rule="evenodd" d="M16.88 7.012c-.029.01-.12.033-.201.051s-.243.119-.359.224c-.312.281-.405.722-.239 1.128.057.14 1.023 1.132 3.293 3.382l3.213 3.184-7.771.003c-5.464.002-7.852.02-8.046.062-.751.161-1.022 1.102-.475 1.649.113.113.296.23.408.261.139.039 2.697.058 8.044.06l7.84.003-3.212 3.184c-2.266 2.246-3.236 3.242-3.294 3.382a1.028 1.028 0 0 0 .965 1.427c.085 0 .25-.046.367-.101.309-.144 8.485-8.344 8.541-8.564.022-.088.041-.244.041-.347s-.019-.259-.041-.347c-.029-.115-1.187-1.308-4.184-4.31-2.279-2.283-4.203-4.182-4.277-4.22-.14-.074-.523-.143-.613-.111"/></svg>

<svg width="32" height="32" viewBox="0 0 32 32" fill="none" xmlns="http://www.w3.org/2000/svg"><path d="M16.880 7.012 C 16.851 7.022,16.760 7.045,16.679 7.063 C 16.597 7.081,16.436 7.182,16.320 7.287 C 16.008 7.568,15.915 8.009,16.081 8.415 C 16.138 8.555,17.104 9.547,19.374 11.797 L 22.587 14.981 14.816 14.984 C 9.352 14.986,6.964 15.004,6.770 15.046 C 6.019 15.207,5.748 16.148,6.295 16.695 C 6.408 16.808,6.591 16.925,6.703 16.956 C 6.842 16.995,9.400 17.014,14.747 17.016 L 22.587 17.019 19.375 20.203 C 17.109 22.449,16.139 23.445,16.081 23.585 C 15.797 24.277,16.298 25.018,17.046 25.012 C 17.131 25.012,17.296 24.966,17.413 24.911 C 17.722 24.767,25.898 16.567,25.954 16.347 C 25.976 16.259,25.995 16.103,25.995 16.000 C 25.995 15.897,25.976 15.741,25.954 15.653 C 25.925 15.538,24.767 14.345,21.770 11.343 C 19.491 9.060,17.567 7.161,17.493 7.123 C 17.353 7.049,16.970 6.980,16.880 7.012 " fill="#1A1C1F" stroke="none" fill-rule="evenodd"></path></svg>
